assets/images/tools/indie-projects.svg

<svg fill="none" height="64" viewBox="0 0 200 64" width="200" xmlns="http://www.w3.org/2000/svg"><path d="m0 0h200v64h-200z" fill="#fff"/><path d="m50 45s-5-5-5-15c0-15 15-20 20-20s20 5 20 20c0 10-5 15-5 15" fill="#6c5ce7"/><path d="m50 45s-5-5-5-15c0-15 15-20 20-20s20 5 20 20c0 10-5 15-5 15" stroke="#4834d4" stroke-width="2"/><circle cx="65" cy="25" fill="#fd9644" r="7"/><path d="m50 45 5 10 10-10 10 10 5-10" fill="#ff7675"/><circle cx="125" cy="25" fill="#fdcb6e" r="12"/><path d="m119 35 2 10h8l2-10" fill="#ffeaa7"/><path d="m122 45h6v3h-6z" fill="#636e72"/><g stroke="#ffecb3" stroke-linecap="round" stroke-width="2"><path d="m115 25h5"/><path d="m130 25h5"/><path d="m125 15v5"/></g><path d="m165 20 2.5 5 5.5 1-4 4 1 5-5-2.5-5 2.5 1-5-4-4 5.5-1z" fill="#74b9ff" stroke="#0984e3"/><path d="m185 30 2 3.5 4 .5-3 3 1 4-4-2-4 2 1-4-3-3 4-.5z" fill="#74b9ff" stroke="#0984e3"/><path d="m175 40 1.5 2.5 2.5.5-2 2.5.5 2.5-2.5-1.5-2.5 1.5.5-2.5-2-2.5 2.5-.5z" fill="#74b9ff" stroke="#0984e3"/></svg>

<?xml version="1.0" encoding="UTF-8" standalone="no"?>
<svg width="200" height="64" viewBox="0 0 200 64" fill="none" xmlns="http://www.w3.org/2000/svg">
  <!-- 白色背景 -->
  <rect width="200" height="64" fill="white"/>
  
  <!-- 火箭图标 -->
  <path d="M50 45C50 45 45 40 45 30C45 15 60 10 65 10C70 10 85 15 85 30C85 40 80 45 80 45" fill="#6C5CE7"/>
  <path d="M50 45C50 45 45 40 45 30C45 15 60 10 65 10C70 10 85 15 85 30C85 40 80 45 80 45" stroke="#4834D4" stroke-width="2"/>
  <circle cx="65" cy="25" r="7" fill="#FD9644"/>
  <path d="M50 45L55 55L65 45L75 55L80 45" fill="#FF7675"/>
  
  <!-- 灯泡图标 -->
  <circle cx="125" cy="25" r="12" fill="#FDCB6E"/>
  <path d="M119 35L121 45H129L131 35" fill="#FFEAA7"/>
  <rect x="122" y="45" width="6" height="3" fill="#636E72"/>
  <path d="M115 25H120" stroke="#FFECB3" stroke-width="2" stroke-linecap="round"/>
  <path d="M130 25H135" stroke="#FFECB3" stroke-width="2" stroke-linecap="round"/>
  <path d="M125 15V20" stroke="#FFECB3" stroke-width="2" stroke-linecap="round"/>
  
  <!-- 星形图标 -->
  <path d="M165 20L167.5 25L173 26L169 30L170 35L165 32.5L160 35L161 30L157 26L162.5 25L165 20Z" fill="#74B9FF" stroke="#0984E3" stroke-width="1"/>
  <path d="M185 30L187 33.5L191 34L188 37L189 41L185 39L181 41L182 37L179 34L183 33.5L185 30Z" fill="#74B9FF" stroke="#0984E3" stroke-width="1"/>
  <path d="M175 40L176.5 42.5L179 43L177 45.5L177.5 48L175 46.5L172.5 48L173 45.5L171 43L173.5 42.5L175 40Z" fill="#74B9FF" stroke="#0984E3" stroke-width="1"/>
</svg>
